X: 3390
M: 2/4
L: 1/16
K: D
uA2 |\
(dA)Bc defg | a2a2 f4 | gaba gfed | cded (cB)A2 |\
(dA)Bc defg | a2a2 f4 | (gb)(eg) (ce)(Ac) | d6 H::\
a2 |\
[K:=c][K:G]\
(Bc) |\
de ^ce dece | dgba gfed | cBAG FDEF | GFGA BABc |\
de^ce dece | dgba gfed | cBAG FDEF | "_D.C."G6 :|


